svgs/sweech.svg

<svg width="192" height="192" viewBox="0 0 192 192" fill="none" xmlns="http://www.w3.org/2000/svg"><path d="m30 44 14-14h28l90 90v28l-14 14h-28L30 72V44ZM72 30h90l-44 44M120 162H30l44-44" stroke="#000" stroke-width="12" stroke-linecap="round" stroke-linejoin="round"/></svg>

<svg width="192" height="192" viewBox="0 0 192 192" fill="none" xmlns="http://www.w3.org/2000/svg">
<path d="M30 44L44 30H72L162 120V148L148 162H120L30 72V44Z" stroke="black" stroke-width="12" stroke-linecap="round" stroke-linejoin="round"/>
<path d="M72 30H162L118 74" stroke="black" stroke-width="12" stroke-linecap="round" stroke-linejoin="round"/>
<path d="M120 162H30L74 118" stroke="black" stroke-width="12" stroke-linecap="round" stroke-linejoin="round"/>
</svg>
